!!!OTL: Little Silver Boat
!!!OTL@@CHN: 小银船
!!!ARE: China
**kern
*clefG2
*M2/4
*k[]
*MM60
{8e
8g
8a
8cc
=1
4g
8g
8a
=2
4g
8cc
8a
=3
4g
4r}
=4
{8e
8g
8a
8cc
=5
4g
8g
8a
=6
4g
8cc
8a
=7
4g
4r}
=8
{4g
8a
8cc
=9
4a
4g
=10
4e
4g
=11
4a
4r}
=12
{4g
8a
8cc
=13
4a
4g
=14
4e
4e
=15
4e
4r}
==
*-
